markets/CELO.svg

<svg width="42" height="42" viewBox="0 0 42 42" fill="none" xmlns="http://www.w3.org/2000/svg">
<circle cx="21" cy="21" r="21" fill="#FCFF52"/>
<g clip-path="url(#clip0_7698_9624)">
<path d="M33.0312 9H9.03125V33H33.0312V24.6219H29.0459C27.6735 27.6799 24.5843 29.8042 21.05 29.8042C16.1749 29.8042 12.2271 25.8188 12.2271 20.9812C12.2208 16.1436 16.1749 12.1958 21.05 12.1958C24.6532 12.1958 27.7425 14.389 29.1148 17.5159H33.0312V9Z" fill="black"/>
</g>
<defs>
<clipPath id="clip0_7698_9624">
<rect width="24.0627" height="24" fill="white" transform="translate(9 9)"/>
</clipPath>
</defs>
</svg>

<svg width="42" height="42" viewBox="0 0 42 42" fill="none" xmlns="http://www.w3.org/2000/svg"><circle cx="21" cy="21" r="21" fill="#FCFF52"/><g clip-path="url(#clip0_7698_9624)"><path d="M33.031 9h-24v24h24v-8.378h-3.985c-1.372 3.058-4.462 5.182-7.996 5.182-4.875 0-8.823-3.985-8.823-8.823-.006-4.837 3.948-8.785 8.823-8.785 3.603 0 6.692 2.193 8.065 5.32h3.916V9z" fill="#000"/></g><defs><clipPath id="clip0_7698_9624"><path fill="#fff" transform="translate(9 9)" d="M0 0h24.063v24H0z"/></clipPath></defs></svg>
